src/icons/card.svg

<svg xmlns="http://www.w3.org/2000/svg" width="512" height="512" viewBox="0 0 512 512">
    <path d="M435.2 73.5H76.8c-24.9 0-44.6 19.6-44.6 44l-.2 264c0 24.4 19.9 44 44.8 44h358.4c24.9 0 44.8-19.6 44.8-44v-264c0-24.4-19.9-44-44.8-44zm0 308H76.8v-132h358.4v132zm0-220H76.8v-44h358.4v44z"/>
</svg>

<?xml version="1.0" encoding="UTF-8"?>
<svg width="512px" height="512px" viewBox="0 0 512 512" version="1.1" xmlns="http://www.w3.org/2000/svg" xmlns:xlink="http://www.w3.org/1999/xlink">
    <!-- Generator: Sketch 62 (91390) - https://sketch.com -->
    <title>card</title>
    <desc>Created with Sketch.</desc>
    <g id="card" stroke="none" stroke-width="1" fill="none" fill-rule="evenodd">
        <path d="M435.2,73.5 L76.8,73.5 C51.9,73.5 32.2,93.1 32.2,117.5 L32,381.5 C32,405.9 51.9,425.5 76.8,425.5 L435.2,425.5 C460.1,425.5 480,405.9 480,381.5 L480,117.5 C480,93.1 460.1,73.5 435.2,73.5 Z M435.2,381.5 L76.8,381.5 L76.8,249.5 L435.2,249.5 L435.2,381.5 Z M435.2,161.5 L76.8,161.5 L76.8,117.5 L435.2,117.5 L435.2,161.5 Z" id="Shape" fill="#000000" fill-rule="nonzero"></path>
    </g>
</svg>
